src/browser/themes/shared/zen-icons/nucleo/popup-fill.svg

#filter dumbComments emptyLines substitution
# This Source Code Form is subject to the terms of the Mozilla Public
# License, v. 2.0. If a copy of the MPL was not distributed with this
# file, You can obtain one at http://mozilla.org/MPL/2.0/.
<svg xmlns="http://www.w3.org/2000/svg" height="18" width="18" viewBox="0 0 18 18"><g fill="context-fill" fill-opacity="context-fill-opacity" class="nc-icon-wrapper"><path d="M14.25,2H3.75c-1.517,0-2.75,1.233-2.75,2.75V13.25c0,1.517,1.233,2.75,2.75,2.75H14.25c1.517,0,2.75-1.233,2.75-2.75V4.75c0-1.517-1.233-2.75-2.75-2.75Zm-7.25,2c.552,0,1,.448,1,1s-.448,1-1,1-1-.448-1-1,.448-1,1-1Zm-3,0c.552,0,1,.448,1,1s-.448,1-1,1-1-.448-1-1,.448-1,1-1ZM15.5,13.25c0,.689-.561,1.25-1.25,1.25H3.75c-.689,0-1.25-.561-1.25-1.25v-5.25H15.5v5.25Z"></path></g></svg>

#filter dumbComments emptyLines substitution
# This Source Code Form is subject to the terms of the Mozilla Public
# License, v. 2.0. If a copy of the MPL was not distributed with this
# file, You can obtain one at http://mozilla.org/MPL/2.0/.
<svg xmlns="http://www.w3.org/2000/svg" width="18" height="18" fill="context-fill" fill-opacity="context-fill-opacity" viewBox="0 0 18 18"><path d="M14.25 2H3.75A2.75 2.75 0 0 0 1 4.75v8.5A2.75 2.75 0 0 0 3.75 16h10.5A2.75 2.75 0 0 0 17 13.25v-8.5A2.75 2.75 0 0 0 14.25 2M7 4a1 1 0 1 1 0 2 1 1 0 0 1 0-2M4 4a1 1 0 1 1 0 2 1 1 0 0 1 0-2m11.5 9.25c0 .689-.561 1.25-1.25 1.25H3.75c-.689 0-1.25-.561-1.25-1.25V8h13z"/></svg>
